symbols/web/screen_lock_portrait/materialsymbolssharp/screen_lock_portrait_wght300fill1_40px.svg

<svg xmlns="http://www.w3.org/2000/svg" height="40" width="40"><path d="M15.208 26.375v-7.958h1.667V16.75q0-1.292.917-2.208.916-.917 2.208-.917 1.333 0 2.25.917.917.916.917 2.208v1.667h1.625v7.958Zm2.959-7.958h3.708V16.75q0-.75-.542-1.271-.541-.521-1.333-.521-.75 0-1.292.521-.541.521-.541 1.271Zm-9 19.083v-35h21.666v35Zm2.083-6.083h17.5V8.583h-17.5Z"/></svg>

<svg xmlns="http://www.w3.org/2000/svg" height="40" width="40"><path d="M15.208 26.375V18.417H16.875V16.75Q16.875 15.458 17.792 14.542Q18.708 13.625 20 13.625Q21.333 13.625 22.25 14.542Q23.167 15.458 23.167 16.75V18.417H24.792V26.375ZM18.167 18.417H21.875V16.75Q21.875 16 21.333 15.479Q20.792 14.958 20 14.958Q19.25 14.958 18.708 15.479Q18.167 16 18.167 16.75ZM9.167 37.5V2.5H30.833V37.5ZM11.25 31.417H28.75V8.583H11.25Z"/></svg>
